src/images/logo.svg

<svg width="35" height="20" viewBox="0 0 35 20" fill="none" xmlns="http://www.w3.org/2000/svg">
<g clip-path="url(#clip0_1_1574)">
<g clip-path="url(#clip1_1_1574)">
<path fill-rule="evenodd" clip-rule="evenodd" d="M3.40677 19.5C2.77965 19.5 2.20338 19.348 1.67796 19.0442C1.16949 18.7234 0.762713 18.3098 0.457626 17.8032C0.152542 17.2968 0 16.7312 0 16.1065V8.20522C0 7.58051 0.152542 7.01493 0.457626 6.50844C0.762713 6.00195 1.16949 5.59675 1.67796 5.29285C2.20338 4.97208 2.77965 4.81168 3.40677 4.81168H11.9745V0H15V19.5H3.40677ZM3.53389 16.4864H11.4915C11.6271 16.4864 11.7372 16.4442 11.822 16.3597C11.9237 16.2584 11.9745 16.1402 11.9745 16.0052V8.30651C11.9745 8.17143 11.9237 8.06166 11.822 7.97727C11.7372 7.87598 11.6271 7.82529 11.4915 7.82529H3.53389C3.39829 7.82529 3.27965 7.87598 3.17796 7.97727C3.09321 8.06166 3.05084 8.17143 3.05084 8.30651V16.0052C3.05084 16.1402 3.09321 16.2584 3.17796 16.3597C3.27965 16.4442 3.39829 16.4864 3.53389 16.4864Z" fill="white"/>
</g>
<g clip-path="url(#clip2_1_1574)">
<path fill-rule="evenodd" clip-rule="evenodd" d="M34.5 17.5556L28.3889 12L34.5 6.44444L32.3611 4.5L26.25 10.0555L20.1389 4.5L18 6.44444L24.1111 12L18 17.5556L20.1389 19.5L26.25 13.9444L32.3611 19.5L34.5 17.5556Z" fill="white"/>
</g>
</g>
<defs>
<clipPath id="clip0_1_1574">
<rect width="34.5" height="19.5" fill="white"/>
</clipPath>
<clipPath id="clip1_1_1574">
<rect width="15" height="19.5" fill="white"/>
</clipPath>
<clipPath id="clip2_1_1574">
<rect width="16.5" height="15" fill="white" transform="translate(18 4.5)"/>
</clipPath>
</defs>
</svg>

<svg xmlns="http://www.w3.org/2000/svg" width="35" height="20" fill="none"><g clip-path="url(#a)"><g clip-path="url(#b)"><path fill="#fff" fill-rule="evenodd" d="M3.407 19.5a3.393 3.393 0 0 1-1.729-.456 3.72 3.72 0 0 1-1.22-1.24A3.224 3.224 0 0 1 0 16.106V8.204c0-.624.153-1.19.458-1.697a3.499 3.499 0 0 1 1.22-1.215 3.255 3.255 0 0 1 1.729-.481h8.568V0H15v19.5H3.407Zm.127-3.014h7.958a.448.448 0 0 0 .33-.126.485.485 0 0 0 .153-.355V8.307a.408.408 0 0 0-.153-.33.41.41 0 0 0-.33-.152H3.534a.489.489 0 0 0-.356.152.444.444 0 0 0-.127.33v7.698c0 .135.042.253.127.355a.54.54 0 0 0 .356.126Z" clip-rule="evenodd"/></g><g clip-path="url(#c)"><path fill="#fff" fill-rule="evenodd" d="M34.5 17.556 28.389 12 34.5 6.444 32.361 4.5l-6.111 5.556L20.139 4.5 18 6.444 24.111 12 18 17.556l2.139 1.944 6.111-5.556 6.111 5.556 2.139-1.944Z" clip-rule="evenodd"/></g></g><defs><clipPath id="a"><path fill="#fff" d="M0 0h34.5v19.5H0z"/></clipPath><clipPath id="b"><path fill="#fff" d="M0 0h15v19.5H0z"/></clipPath><clipPath id="c"><path fill="#fff" d="M18 4.5h16.5v15H18z"/></clipPath></defs></svg>
